Newaita-dark/actions/22/format-text-smaller.svg

<?xml version="1.0" encoding="UTF-8"?>
<svg xmlns="http://www.w3.org/2000/svg" xmlns:xlink="http://www.w3.org/1999/xlink" width="22pt" height="22pt" viewBox="0 0 22 22" version="1.1">
<g id="surface1">
<path style=" stroke:none;fill-rule:nonzero;fill:rgb(47.058824%,56.470591%,61.176473%);fill-opacity:1;" d="M 10.914062 7.449219 C 9.703125 7.449219 8.628906 7.890625 7.96875 8.570312 L 9.683594 9.507812 C 10.007812 9.359375 10.441406 9.269531 10.914062 9.269531 C 11.921875 9.269531 12.734375 9.671875 12.734375 10.175781 L 12.734375 11.449219 C 12.199219 11.21875 11.578125 11.085938 10.914062 11.085938 C 8.898438 11.085938 7.277344 12.304688 7.277344 13.816406 L 7.277344 14.269531 L 7.328125 14.269531 C 7.613281 15.5625 9.105469 16.542969 10.914062 16.542969 C 11.578125 16.542969 12.199219 16.414062 12.734375 16.183594 L 12.734375 16.542969 L 14.554688 16.542969 L 14.554688 10.175781 C 14.554688 8.664062 12.929688 7.449219 10.914062 7.449219 Z M 10.914062 12.90625 C 11.921875 12.90625 12.734375 13.3125 12.734375 13.816406 C 12.734375 14.320312 11.921875 14.726562 10.914062 14.726562 C 9.90625 14.726562 9.097656 14.320312 9.097656 13.816406 C 9.097656 13.3125 9.90625 12.90625 10.914062 12.90625 Z M 10.914062 12.90625 "/>
</g>
</svg>

<svg xmlns="http://www.w3.org/2000/svg" width="22pt" height="22pt" viewBox="0 0 22 22"><path d="M10.914 7.45c-1.21 0-2.285.44-2.945 1.12l1.715.938c.324-.149.757-.238 1.23-.238 1.008 0 1.82.402 1.82.906v1.273a4.614 4.614 0 0 0-1.82-.363c-2.016 0-3.637 1.219-3.637 2.73v.454h.051c.285 1.293 1.777 2.273 3.586 2.273.664 0 1.285-.129 1.82-.36v.36h1.82v-6.367c0-1.512-1.624-2.727-3.64-2.727zm0 5.456c1.008 0 1.82.406 1.82.91s-.812.91-1.82.91-1.816-.406-1.816-.91.808-.91 1.816-.91zm0 0" fill="#78909c"/></svg>
